packages/foundations/assets/icons/functional/images/maps/navigation_u_turn_24.svg

<svg width="24" height="24" viewBox="0 0 24 24" fill="none" xmlns="http://www.w3.org/2000/svg">
<g clip-path="url(#clip0_2213_5430)">
<path fill-rule="evenodd" clip-rule="evenodd" d="M15.5374 8.49631L15.509 17.5606L17.7763 15.2921C17.9752 15.093 18.2183 14.9935 18.5056 14.9935C19.036 14.9935 19.5 15.4248 19.5 15.9888C19.5 16.2542 19.4006 16.5196 19.2017 16.6854L15.1193 20.7741C14.9546 20.9204 14.7273 20.9935 14.5 20.9935C14.268 20.9935 14.0028 20.894 13.8038 20.6949L9.79827 16.6854C9.6326 16.5196 9.5 16.2542 9.5 15.9888C9.5 15.4248 9.96404 14.9935 10.4944 14.9935C10.7596 14.9935 11.0248 15.093 11.2238 15.2921L13.509 17.5796L13.5374 8.49071C13.5426 6.63584 12.1062 5.00664 10.0529 5.00664C7.99963 5.00664 6.50033 6.58352 6.50033 8.51978L6.5 11.9999C6.5 12.5521 6.05228 12.9999 5.5 12.9999C4.94772 12.9999 4.5 12.5521 4.5 11.9999L4.50033 8.51978C4.50033 5.55534 7.00193 3.00647 10.0529 3.00647C13.1039 3.00647 15.5459 5.47291 15.5374 8.49631Z" fill="#1A1C1F"/>
</g>
<defs>
<clipPath id="clip0_2213_5430">
<rect width="24" height="24" fill="white"/>
</clipPath>
</defs>
</svg>

<svg xmlns="http://www.w3.org/2000/svg" width="24" height="24" fill="none"><g clip-path="url(#a)"><path fill="#1A1C1F" fill-rule="evenodd" d="m15.537 8.496-.028 9.065 2.267-2.269a1 1 0 0 1 .73-.299c.53 0 .994.432.994.996 0 .265-.1.53-.298.696l-4.083 4.09a.94.94 0 0 1-.619.219c-.232 0-.497-.1-.696-.3l-4.006-4.009a1.03 1.03 0 0 1-.298-.696c0-.564.464-.996.994-.996.266 0 .53.1.73.3l2.285 2.287.028-9.09c.006-1.854-1.43-3.483-3.484-3.483C8 5.007 6.5 6.584 6.5 8.52V12a1 1 0 0 1-2 0V8.52c0-2.965 2.502-5.514 5.553-5.514a5.473 5.473 0 0 1 5.484 5.49" clip-rule="evenodd"/></g><defs><clipPath id="a"><path fill="#fff" d="M0 0h24v24H0z"/></clipPath></defs></svg>
